icons/kustomize.svg

<!--
  - The MIT License (MIT)
  -
  - Copyright (c) 2015-2024 Elior "Mallowigi" Boukhobza
  -
  - Permission is hereby granted, free of charge, to any person obtaining a copy
  - of this software and associated documentation files (the "Software"), to deal
  - in the Software without restriction, including without limitation the rights
  - to use, copy, modify, merge, publish, distribute, sublicense, and/or sell
  - copies of the Software, and to permit persons to whom the Software is
  - furnished to do so, subject to the following conditions:
  -
  - The above copyright notice and this permission notice shall be included in all
  - copies or substantial portions of the Software.
  -
  - THE SOFTWARE IS PROVIDED "AS IS", WITHOUT WARRANTY OF ANY KIND, EXPRESS OR
  - IMPLIED, INCLUDING BUT NOT LIMITED TO THE WARRANTIES OF MERCHANTABILITY,
  - FITNESS FOR A PARTICULAR PURPOSE AND NONINFRINGEMENT. IN NO EVENT SHALL THE
  - AUTHORS OR COPYRIGHT HOLDERS BE LIABLE FOR ANY CLAIM, DAMAGES OR OTHER
  - LIABILITY, WHETHER IN AN ACTION OF CONTRACT, TORT OR OTHERWISE, ARISING FROM,
  - OUT OF OR IN CONNECTION WITH THE SOFTWARE OR THE USE OR OTHER DEALINGS IN THE
  - SOFTWARE.
  -
  -->

<svg  width="16px" height="16px" viewBox="41 7 12 12" xmlns="http://www.w3.org/2000/svg">
  <path fill-rule="evenodd" clip-rule="evenodd"
        d="M50.759 7H41.8159C41.3653 7 41 7.36534 41 7.81589V18.1841C41 18.6351 41.3653 19 41.8159 19H50.759C51.2096 19 51.5749 18.6351 51.5749 18.1841V7.81589C51.5749 7.36534 51.2096 7 50.759 7V7ZM43.8738 16.0655V9.59273H44.735V12.82L48.0167 9.59273H49.1318L46.403 12.2036L49.2405 16.0655H48.1527L45.8138 12.7929L44.735 13.7991V16.0655H43.8738V16.0655Z"
        fill="#01579B" data-iconColor="Kustomize"/>
</svg>

<svg xmlns="http://www.w3.org/2000/svg" viewBox="41 7 12 12"><path fill="#01579b" fill-rule="evenodd" d="M50.759 7h-8.943a.816.816 0 0 0-.816.816v10.368c0 .451.365.816.816.816h8.943c.45 0 .816-.365.816-.816V7.816A.816.816 0 0 0 50.759 7m-6.885 9.066V9.593h.861v3.227l3.282-3.227h1.115l-2.729 2.61 2.837 3.863h-1.087l-2.34-3.273-1.078 1.006v2.267z" clip-rule="evenodd" data-iconColor="Kustomize"/></svg>
